X:1
T:Giant steps
M:4/4
L:1/4
C:John Coltrane
S:Atte_Andr\'e Jensen <atte@ballbreaker.dk>
Q:1/4=264
K:C
P:A
"Bmaj7"^f2"D7"d2 | "Gmaj7"B2"Bb7"G>_B- | "Ebmaj7"B4 | "Am7"=B>A-"D7"A2 |
"Gmaj7"d2"Bb7"_B2 | "Ebmaj7"G2"F#7"^D>^F- | "Bmaj7"F4 |
"Fm7"G2"Bb7"=F>_B- ||
P:B
"Ebmaj7"_B4 | "Am7"=B2"D7"A>d- | "Gmaj7"d4 | "C#m7"^d2"F#7"^c>^f- |
"Bmaj7"f4 | "Fm7"g2"Bb7"=f>_b- | "Ebmaj7"b4 | "C#m7"^f>f-"F#7"f2 :|
